X:1
T:SLEEPY MAGGIE
M:C
L:1/8
Q:80
C:P.M. J.G. Slattery
S:Reel
K:HP
|: {gef}e2{g}Aaed{g}Bd | \
{gef}e2{gf}g2d{e}G{g}Bd | \
{gef}e2{g}Aaed{g}Bd |
{g}ef{a}ged{e}G{g}Bd :: \
{g}eA{gAGAG}A2{g}eA{g}Bd | \
{g}eA{gAGAG}A2{g}B{d}G{g}Bd |
{g}eA{gAGAG}A2{g}eA{g}Bd | \
{g}ef{a}ged{e}G{g}Bd :: \
{gfg}f2{g}BafB{g}de |
{gfg}f2{g}BaeA{g}ce | \
{gfg}f2{g}BafB{g}de | \
{g}fgaf{g}eA{g}ce ::
{g}fB{g}B{d}B{g}fB{g}de | \
{g}fB{g}B{d}B{g}eA{g}ce | \
{g}fB{g}B{d}B{g}fB{g}de |
{g}fgaf{g}eA{g}ce :|
